X:10033
T:Madame Bonaparte
% Nottingham Music Database
P:8 + 12 bars
S:Alistair Anderson
M:4/4
L:1/8
R:Hornpipe
K:G
P:A
dc|"G"B2BA BdBG|"C"c2cB cecA|"G"GBdf "Em"gfge|"Am"d3e "D7"dcBA|
"G"B2BA BdBG|"C"cBcd efge|"G"dBGB "D7"cAFA|"G"G2GF G2:|
P:B
BA|"G"GBdf "Em"gfge|"Am"d3e "D7"dcBA|F"G"GBd f"Em"gfge|"Am"d3e "D7"dcBA|
"G"BdGd BdGd|"Am"ceAe ceAd|"G"BdGd BdGA|"D7"FADA FADd|
"G"BdGd BdGd|"C"cBcd efge|"G"dBGB "D7"cAFA|"G"G2GF G2:|


